src/Images/success.svg

<svg width="52" height="52" viewBox="0 0 52 52" fill="none" xmlns="http://www.w3.org/2000/svg">
<path d="M23.1272 7.52842C24.1339 4.89026 27.8661 4.89026 28.8728 7.52842C29.5976 9.42776 31.9331 10.1135 33.5697 8.90756C35.8429 7.23247 38.9827 9.25025 38.4033 12.0139C37.9861 14.0036 39.5801 15.8432 41.6089 15.7134C44.4269 15.5332 45.9773 18.9282 43.9958 20.9398C42.5691 22.3881 42.9155 24.7975 44.6924 25.7852C47.1604 27.1571 46.6293 30.8513 43.8747 31.4724C41.8916 31.9195 40.8804 34.1336 41.8412 35.9252C43.1757 38.4136 40.7316 41.2342 38.0786 40.2674C36.1685 39.5714 34.1208 40.8874 33.9605 42.914C33.7378 45.7289 30.1568 46.7804 28.4476 44.5327C27.2171 42.9145 24.7829 42.9145 23.5524 44.5327C21.8432 46.7804 18.2622 45.7289 18.0395 42.914C17.8792 40.8874 15.8315 39.5714 13.9214 40.2674C11.2684 41.2342 8.82428 38.4136 10.1588 35.9252C11.1196 34.1336 10.1084 31.9195 8.12528 31.4724C5.3707 30.8513 4.83955 27.1571 7.30759 25.7852C9.08445 24.7975 9.43087 22.3881 8.00425 20.9398C6.0227 18.9282 7.57311 15.5332 10.3911 15.7134C12.4199 15.8432 14.0139 14.0036 13.5967 12.0139C13.0173 9.25025 16.1571 7.23246 18.4303 8.90756C20.0669 10.1135 22.4024 9.42776 23.1272 7.52842Z" fill="url(#paint0_linear_239_5528)"/>
<path d="M32.9331 22.2334L23.3997 31.7667L19.0664 27.4334" stroke="#F7F7F7" stroke-width="4" stroke-linecap="round" stroke-linejoin="round"/>
<defs>
<linearGradient id="paint0_linear_239_5528" x1="26" y1="2" x2="26" y2="48" gradientUnits="userSpaceOnUse">
<stop stop-color="#FF6B00"/>
<stop offset="1" stop-color="#FF2E00"/>
</linearGradient>
</defs>
</svg>

<svg width="52" height="52" fill="none" xmlns="http://www.w3.org/2000/svg"><path d="M23.127 7.528c1.007-2.638 4.74-2.638 5.746 0a3.075 3.075 0 0 0 4.697 1.38c2.273-1.676 5.413.342 4.833 3.106a3.075 3.075 0 0 0 3.206 3.7c2.818-.18 4.368 3.214 2.387 5.226a3.075 3.075 0 0 0 .696 4.845c2.468 1.372 1.937 5.066-.817 5.687a3.075 3.075 0 0 0-2.034 4.453c1.335 2.489-1.11 5.31-3.762 4.342a3.075 3.075 0 0 0-4.118 2.647c-.223 2.815-3.804 3.866-5.513 1.619a3.075 3.075 0 0 0-4.896 0c-1.709 2.247-5.29 1.196-5.512-1.619a3.075 3.075 0 0 0-4.119-2.647c-2.653.967-5.097-1.853-3.762-4.342a3.075 3.075 0 0 0-2.034-4.453c-2.754-.62-3.285-4.315-.817-5.687a3.075 3.075 0 0 0 .696-4.845c-1.981-2.012-.43-5.407 2.387-5.227a3.075 3.075 0 0 0 3.206-3.7c-.58-2.763 2.56-4.78 4.833-3.105a3.075 3.075 0 0 0 4.697-1.38z" fill="url(#a)"/><path d="M32.933 22.233 23.4 31.767l-4.334-4.334" stroke="#F7F7F7" stroke-width="4" stroke-linecap="round" stroke-linejoin="round"/><defs><linearGradient id="a" x1="26" y1="2" x2="26" y2="48" gradientUnits="userSpaceOnUse"><stop stop-color="#FF6B00"/><stop offset="1" stop-color="#FF2E00"/></linearGradient></defs></svg>
